!!!!SEGMENT: pl-kk--kk-i-195--001_anonim--jesu-corona-celsior.krn
!!!cenid: 17xx:2610
!!!COM: Anonim
!!!COM-rismID: pe30004985
!!!CDT:
!!!CNT:
!!!OTL: Jesu corona celsior
!!!PDT:
!!!AGN: Sacred; Hymns
!!!YEC: Copyright 2022 Narodowy Instytut Fryderyka Chopina (https://polishscores.org)
!!!YEM: License CC-BY-4.0 (https://creativecommons.org/licenses/by/4.0)
!!!SMS-siglum: PL-Kk
!!!SMS-shelfmark: Kk.I.195
!!!SMS-variant:
!!!SMS-altvar:
!!!SMS-shelfwork: 001 W
!!!NIFC-rismSourceID: 1001151874
!!!NIFC-rismChildID: 1001151877
!!!NIFC-islandoraID: pl-kk:4083
!!!URL-pdf-islandora: https://repozytorium.nifc.pl/islandora/object/pl-kk:4083/datastream/PDF/view
!!!URL-scan: https://polish.musicsources.pl/pl/lokalizacje/galeria/rekopisy/5823/3 @EN{Scan on Polish Music Sources Website} @PL{Skany w portalu Dziedzictwo Muzyki Polskiej w otwartym dostępie}
!!!IIIF:
!!!ONB-nifc: UWAGA: Utwory w źródle: 1. Jesu corona celsior, 2. Iste confessor
!!!OMD:
!!!AIN: 1 alto 1 bass 1 canto 1 tenor
!!!key: d:dor-hypo
**kern	**text	**text	**text	**text	**text	**text	**text	**text	**kern	**text	**text	**text	**text	**text	**text	**text	**text	**kern	**text	**text	**text	**text	**text	**text	**text	**text	**kern	**text	**text	**text	**text	**text	**text	**text	**text
*part4	*part4	*part4	*part4	*part4	*part4	*part4	*part4	*part4	*part3	*part3	*part3	*part3	*part3	*part3	*part3	*part3	*part3	*part2	*part2	*part2	*part2	*part2	*part2	*part2	*part2	*part2	*part1	*part1	*part1	*part1	*part1	*part1	*part1	*part1	*part1
*staff4	*staff4	*staff4	*staff4	*staff4	*staff4	*staff4	*staff4	*staff4	*staff3	*staff3	*staff3	*staff3	*staff3	*staff3	*staff3	*staff3	*staff3	*staff2	*staff2	*staff2	*staff2	*staff2	*staff2	*staff2	*staff2	*staff2	*staff1	*staff1	*staff1	*staff1	*staff1	*staff1	*staff1	*staff1	*staff1
*I"Baſso	*	*	*	*	*	*	*	*	*I"Tenore	*	*	*	*	*	*	*	*	*I"Alto	*	*	*	*	*	*	*	*	*I"Canto	*	*	*	*	*	*	*	*
*I'B	*	*	*	*	*	*	*	*	*I'T	*	*	*	*	*	*	*	*	*I'A	*	*	*	*	*	*	*	*	*I'S	*	*	*	*	*	*	*	*
*Ibass	*	*	*	*	*	*	*	*	*Itenor	*	*	*	*	*	*	*	*	*Ialto	*	*	*	*	*	*	*	*	*Icanto	*	*	*	*	*	*	*	*
*ICvox	*	*	*	*	*	*	*	*	*ICvox	*	*	*	*	*	*	*	*	*ICvox	*	*	*	*	*	*	*	*	*ICvox	*	*	*	*	*	*	*	*
*clefF4	*	*	*	*	*	*	*	*	*clefC4	*	*	*	*	*	*	*	*	*clefC3	*	*	*	*	*	*	*	*	*clefC1	*	*	*	*	*	*	*	*
*k[]	*	*	*	*	*	*	*	*	*k[]	*	*	*	*	*	*	*	*	*k[]	*	*	*	*	*	*	*	*	*k[]	*	*	*	*	*	*	*	*
*d:dor-hypo	*	*	*	*	*	*	*	*	*d:dor-hypo	*	*	*	*	*	*	*	*	*d:dor-hypo	*	*	*	*	*	*	*	*	*d:dor-hypo	*	*	*	*	*	*	*	*
*M3/2	*	*	*	*	*	*	*	*	*M3/2	*	*	*	*	*	*	*	*	*M3/2	*	*	*	*	*	*	*	*	*M3/2	*	*	*	*	*	*	*	*
=1	=1	=1	=1	=1	=1	=1	=1	=1	=1	=1	=1	=1	=1	=1	=1	=1	=1	=1	=1	=1	=1	=1	=1	=1	=1	=1	=1	=1	=1	=1	=1	=1	=1	=1	=1
2D/	Je-	Da	An-	Hic	Te	Vir-	Pro-	Pa-	2A/	Je-	Da	An-	Hic	Te	Vir-	Pro-	Pa-	2A/	Je-	Da	An-	Hic	Te	Vir-	Pro-	Pa-	2dd\	Je-	Da	An-	Hic	Te	Vir-	Pro-	Pa-
*	*	*	*	*	*	*	*	*	*	*	*	*	*	*	*	*	*	*2\right	*	*	*	*	*	*	*	*	*	*	*	*	*	*	*	*	*
2D/	-su	sup-	-ni	va-	Chris-	-tu-	-in-	-tri	2A/	-su	sup-	-ni	Va-	Chr(is-	-tu-	-in-	-tri	2d\	-su	sup-	-ni	Va-	Chris-	-tu-	-in-	-tri	2ff\	-su	sup-	-ni	Va-	Chris-	-tu-	-in-	-tri
2C#X/	co-	-pli-	re-	-na	-te	-te	-de	pe-	2A/	co-	-pli-	re-	-na	-t)e	-te	-de	pe-	2e\	co-	-pli-	re-	-na	-te	-te	-de	pe-	2ee\	co-	-pli-	re-	-na	-te	-te	-de	pe-
=2	=2	=2	=2	=2	=2	=2	=2	=2	=2	=2	=2	=2	=2	=2	=2	=2	=2	=2	=2	=2	=2	=2	=2	=2	=2	=2	=2	=2	=2	=2	=2	=2	=2	=2	=2
1D	-ro-	-can-	-uer-	ter-	Rex	cla-	te	-ren-	1A	-ro-	-can-	-uer-	ter-	Rex	cla-	te	-ren-	1f	-ro-	-can-	-uer-	ter-	Rex	cla-	te	-ren-	1dd,	-ro-	-can-	-uer-	ter-	Rex	cla-	te	-ren-
2GG/	-na	-ti	-so	-rae	pi-	-rus	Pi-	-nis	2B-X/	-na	-ti	-so	-rae	pi-	-rus	Pi-	-nis	2g\	-na	-ti	-so	-rae	pi-	-rus	Pi-	-nis	2dd\	-na	-ti	-so	-rae	pi-	-rus	Pi-	-nis
=3	=3	=3	=3	=3	=3	=3	=3	=3	=3	=3	=3	=3	=3	=3	=3	=3	=3	=3	=3	=3	=3	=3	=3	=3	=3	=3	=3	=3	=3	=3	=3	=3	=3	=3	=3
2.AA/	cel-	coe-	tem-	gau-	-iſ-	et	-iſ-	glo-	2.A/	cel-	coe-	tem-	gau-	-is-	et	-iſ-	glo-	2.e\	cel-	coe-	tem-	gau-	-iſ-	et	-iſ-	glo-	2.cc#X\	cel-	coe-	tem-	gau-	-is-	et	-iſ-	glo-
4AA/	-si-	-tu-	-po-	-di-	-si-	fi-	-si-	-ri-	4A/	-si-	-tu-	-po-	-di-	-si-	fi-	-si-	-ri-	4e\	-si-	-tu-	-po-	-di-	-si-	fi-	-si-	-ri-	4cc#\	-si-	-tu-	-po-	-di-	-si-	fi-	-si-	-ri-
2AA/	-or	-i	-re	-a	-me	-de	-me	-a	2A/	-or	-i	-re	-a	-me	-de	-me	-a	2e\	-or	-i	-re	-a	-me	-de	-me	-a	2cc#\	-or	-i	-re	-a	-me	-de	-me	-a
=4	=4	=4	=4	=4	=4	=4	=4	=4	=4	=4	=4	=4	=4	=4	=4	=4	=4	=4	=4	=4	=4	=4	=4	=4	=4	=4	=4	=4	=4	=4	=4	=4	=4	=4	=4
*2\right	*	*	*	*	*	*	*	*	*2\right	*	*	*	*	*	*	*	*	*	*	*	*	*	*	*	*	*	*	*	*	*	*	*	*	*	*
!	!	!	!	!	!	!	!	!	!LO:N:acc=#	!	!	!	!	!	!	!	!	!	!	!	!	!	!	!	!	!	!	!	!	!	!	!	!	!	!
2G#X\	et	hu-	di-	et	hic	con-	pre-	Na-	2Bn\	et	Hu-	Di-	Et	Hic	Con-	Pre-	Na-	2e\	et	Hu-	Di-	Et	Hic	Con-	Pre-	Na-	2b\	et	Hu-	Di-	Et	Hic	Con-	Pre-	Na-
2.G#\	ve-	-ius	-es	lu-	con-	-feſ-	-ca-	-to-	2.B\	Ve-	-ius	-es	lu-	con-	-fes-	-ca-	-to-	2.e\	Ve-	-ius	-es	lu-	con-	-fes-	-ca-	-to-	2.b\	Ve-	-ius	-es	lu-	con-	-fes-	-ca-	-to-
4G#\	-ri-	ro-	re-	-cu-	-fi-	-si-	-mur	-q(ue)	4B\	-ri-	ro-	re-	-cu-	-fi-	-si-	-mur	-q(ue)	4d\	-ri-	ro-	re-	-cu-	-fi-	-ſi-	-mur	-q(ue)	4b\	-ri-	ro-	re-	-cu-	-fi-	-si-	-mur	-q(ue)
=5	=5	=5	=5	=5	=5	=5	=5	=5	=5	=5	=5	=5	=5	=5	=5	=5	=5	=5	=5	=5	=5	=5	=5	=5	=5	=5	=5	=5	=5	=5	=5	=5	=5	=5	=5
2A\	-tas	-ga-	-ful-	-len-	-ten-	-o-	om-	Pa-	1.A	-tas	-ga-	-ful-	-len-	-ten-	-o-	om-	P(a-	1.d	-tas	-ga-	-ful-	-len-	-ten-	-o-	om-	Pa-	2ccn\	-tas	-ga-	-ful-	-len-	-ten-	-o-	om-	Pa-
2.A\	.	.	.	.	.	.	.	.	.	.	.	.	.	.	.	.	.	.	.	.	.	.	.	.	.	.	(2.cc\	Ve-	-tu	-sit	-ta	-do	-ne	-nes	-tris
*	*	*	*	*	*	*	*	*	*	*	*	*	*	*	*	*	*	*	*	*	*	*	*	*	*	*	*	*	*	*ij	*ij	*ij	*ij	*ij	*ij
4G\	.	.	.	.	.	.	.	.	.	.	.	.	.	.	.	.	.	.	.	.	.	.	.	.	.	.	4b\	.	hu-	re-	et	hic	con-	pre-	Na-
=6	=6	=6	=6	=6	=6	=6	=6	=6	=6	=6	=6	=6	=6	=6	=6	=6	=6	=6	=6	=6	=6	=6	=6	=6	=6	=6	=6	=6	=6	=6	=6	=6	=6	=6	=6
*	*	*	*	*	*	*	*	*	*	*ij	*	*	*	*	*	*	*	*	*	*	*	*	*	*	*	*	*	*	*	*	*	*	*	*	*
4F\	et	-tu	-sit	-ta	-do	-ne	-nes	-tris	2A/	et	-tu	-sit	-ta	-do	-ne	-nes	-tri)s	2f\	et	-tu	-sit	-ta	-do	-ne	-nes	-tris	1a)	-ri-	-ius	-ful-	lu-	con-	-fes-	-ca-	-to-
*	*	*ij	*ij	*ij	*ij	*ij	*ij	*ij	*	*	*	*	*	*	*	*	*	*	*	*	*	*	*	*	*	*	*	*	*	*	*	*	*	*	*
4E\	ve	hu-	re-	et	hic	con-	pre-	na-	.	.	.	.	.	.	.	.	.	.	.	.	.	.	.	.	.	.	.	.	.	.	.	.	.	.	.
*	*	*	*	*	*	*	*	*	*	*	*ij	*ij	*ij	*ij	*ij	*ij	*ij	*	*	*ij	*ij	*ij	*ij	*ij	*ij	*ij	*	*	*	*	*	*	*	*	*
2.D/	-ri-	-ius	-ful-	lu-	con-	-fes-	-ca-	-to-	2.A/	Ve	Hu-	re-	et	hic	con-	pre-	na-	2.f\	Ve	hu-	re-	et	hic	con-	pre-	na-	.	.	.	.	.	.	.	.	.
.	.	.	.	.	.	.	.	.	.	.	.	.	.	.	.	.	.	.	.	.	.	.	.	.	.	.	2a\	-tas	ro-	-sit	-cu-	-fi-	-si-	-mur	-que
*	*	*	*	*	*	*	*	*	*	*	*	*	*	*	*	*	*	*	*	*	*	*	*	*	*	*	*	*	*	*Xij	*	*	*	*	*
4C/	-tas	ro-	-sit	-cu-	-fi-	-si-	-mur	-que	4A/	-ri-	-ius	-ful-	lu-	con-	-fes-	-ca-	-to-	4e\	-ri-	-ius	-ful-	lu-	con-	-fes-	-ca-	-to-	.	.	.	.	.	.	.	.	.
*	*	*	*Xij	*	*	*	*	*	*	*	*	*	*	*	*	*	*	*	*	*	*	*	*	*	*	*	*	*	*	*	*	*	*	*	*
=7	=7	=7	=7	=7	=7	=7	=7	=7	=7	=7	=7	=7	=7	=7	=7	=7	=7	=7	=7	=7	=7	=7	=7	=7	=7	=7	=7	=7	=7	=7	=7	=7	=7	=7	=7
1BB	Su-	-ga-	lu-	-len-	-ten-	-o-	om-	Pa-	1B	-tas	ro-	-sit	-cu-	-fi-	-si-	-mur	-que	1d	-tas	ro-	-sit	-cu-	-fi-	-si-	-mur	-que	1b	Su-	-ga-	lu-	-len-	-ten-	-o-	om-	Pa-
*	*	*	*	*	*	*	*	*	*	*Xij	*	*Xij	*	*	*	*	*	*	*	*	*Xij	*	*	*	*	*	*	*	*	*	*	*	*	*	*
!LO:TX:a:t=P:problem=♮ above	!	!	!	!	!	!	!	!	!	!	!	!	!	!	!	!	!	!	!	!	!	!	!	!	!	!	!	!	!	!	!	!	!	!	!
2Cn/	-bli-	-tu	-mi-	-ta	-do	-ne	-nes	-tris	2e\	Su-	-ga-	lu-	-len-	-ten-	-o-	om-	Pa-	2e\	Su-	-ga-	lu-	-len-	-ten-	-o-	om-	Pa-	2a\	-bli-	-tu	-mi-	-ta	-do	-ne	-nes	-tris
*	*	*Xij	*	*Xij	*Xij	*Xij	*Xij	*Xij	*	*	*	*	*	*	*	*	*	*	*	*	*	*	*	*	*	*	*	*	*	*	*Xij	*Xij	*Xij	*Xij	*Xij
=8-	=8	=8	=8	=8	=8	=8	=8	=8	=8	=8	=8	=8	=8	=8	=8	=8	=8	=8	=8	=8	=8	=8	=8	=8	=8	=8	=8	=8	=8	=8	=8	=8	=8	=8	=8
2D/	-mi-	no-	-ne	prae-	ju-	se-	sup-	U-	2f\	-bli-	-tu	-mi-	-ta	-do	-ne	-nes	-tris	2c/	-bli-	-tu	-mi-	-ta	-do	-ne	-nes	-tris	2a\	-mi-	no-	-ne	prae-	iu-	se-	sup-	U-
*	*	*	*	*	*	*	*	*	*	*	*Xij	*	*Xij	*Xij	*Xij	*Xij	*Xij	*	*	*Xij	*	*Xij	*Xij	*Xij	*Xij	*Xij	*	*	*	*	*	*	*	*	*
2.E\	-or	-xi-	.	-di-	-gi-	-du-	-pli-	-ni-	2.e\	-mi-	no-	-ne	prae-	iu-	se-	sup-	U-	2.B/	-mi-	no-	-ne	prae-	iu-	se-	sup-	U-	2.a\	-or	-xi-	.	-di-	-gi-	-du-	-pli-	-ni-
!	!	!	!	!	!	!	!	!	!	!	!	!	!	!	!	!	!	!	!	!	!	!	!	!	!	!	!LO:TX:a:t=P:problem=# above	!	!	!	!	!	!	!	!
4E\	.	-j	.	-a	-ter	-lus	-ces	-co	4e\	-or	-xi-	.	-di-	-gi-	-du-	-pli-	-ni-	4B/	-or	-xi-	.	-di-	-gi-	-du-	-pli-	-ni-	4g#X\	.	i	.	-a	-ter	-lus	-ces	-co
=9	=9	=9	=9	=9	=9	=9	=9	=9	=9	=9	=9	=9	=9	=9	=9	=9	=9	=9	=9	=9	=9	=9	=9	=9	=9	=9	=9	=9	=9	=9	=9	=9	=9	=9	=9
1.AA	.	.	.	.	.	.	.	.	1.e	.	i	.	-a	-ter	-lus	-ces	-co	1.A	.	i	.	-a	-ter	-lus	-ces	-co	1.a	.	.	.	.	.	.	.	.
=10	=10	=10	=10	=10	=10	=10	=10	=10	=10	=10	=10	=10	=10	=10	=10	=10	=10	=10	=10	=10	=10	=10	=10	=10	=10	=10	=10	=10	=10	=10	=10	=10	=10	=10	=10
!	!	!	!	!	!	!	!	!	!	!	!	!	!	!	!	!	!	!	!	!	!	!	!	!	!	!	!LO:TX:a:t=P:problem=♮ above	!	!	!	!	!	!	!	!
2.C/	qui	re-	quo	pol-	Cal-	ie-	no-	San-	2c\	Qui	Re-	Quo	Pol-	Cal-	Je-	No-	San-	2e\	Qui	Re-	Quo	Pol-	Cal-	Je-	No-	San-	2gn/	Qui	Re-	Quo	Pol-	Cal-	Je-	No-	San-
.	.	.	.	.	.	.	.	.	2c\	con-	-miſ-	San-	-lu-	-ca-	-iu-	-bis	-ctos-	2e\	con-	-mis-	San-	-lu-	-ca-	-iu-	-bis	-ctos-	2g/	con-	-mis-	San-	-lu-	-ca-	-iu-	-bis	-ctos-
4BB/	con-	-miſ-	san-	-lu-	-ca-	-iu-	-bis	-ctos-	.	.	.	.	.	.	.	.	.	.	.	.	.	.	.	.	.	.	.	.	.	.	.	.	.	.	.
2AA/	-fi-	-si-	-ctus	-ta	-vit	-na	ut	-q(ue)	2c\	-fi-	-si-	-ctus	-ta	-vit	-na	Ut	-q(ue)	2f#X\	-fi-	-si-	-ctus	-ta	-vit	-na	ut	-q(ue)	2a/	-fi-	-si-	-ctus	-ta	-vit	-na	ut	-q(ue)
=11	=11	=11	=11	=11	=11	=11	=11	=11	=11	=11	=11	=11	=11	=11	=11	=11	=11	=11	=11	=11	=11	=11	=11	=11	=11	=11	=11	=11	=11	=11	=11	=11	=11	=11	=11
1GG	-ten-	-o-	hic	sor-	ar-	mem-	hu-	sit	1d	-ten-	-o-	hic	sor-	ar-	mem-	hu-	sit	1g	-ten-	-o-	hic	sor-	ar-	mem-	hu-	sit	1b-X	-ten-	-o-	hic	sor-	ar-	mem-	hu-	sit
2BB-/	-ti	-nem	de	-de	-tes	-bra	-jus	Pa-	2d\	-ti	-nem	de	-de	-tes	-bra	-ius	Pa-	2g\	-ti	-nem	de	-de	-tes	-bra	-jus	Pa-	2b-\	-ti	-nem	de	-de	-tes	-bra	-ius	Pa-
=12	=12	=12	=12	=12	=12	=12	=12	=12	=12	=12	=12	=12	=12	=12	=12	=12	=12	=12	=12	=12	=12	=12	=12	=12	=12	=12	=12	=12	=12	=12	=12	=12	=12	=12	=12
(2C/	ſer-	cri-	cor-	de-	dae-	def-	gra-	-ra-	2e\	ſer-	cri-	cor-	de-	dae-	de-	gra-	-ra-	1g	ſer-	cri-	cor-	de-	dae-	de-	gra-	-ra-	2b\	ſer-	cri-	cor-	de-	dae-	de-	gra-	-ra-
2.D/)	-vu-	-mi-	-po-	-pu-	-mo-	-fe-	-ti-	-cli-	2.d\	-vu-	-mi-	-po-	-pu-	-mo-	-fe-	-ti-	-cli-	.	.	.	.	.	.	.	.	.	2.a\	-vu-	-mi-	-po-	-depu-	-mo-	-fe-	-ti-	-cli-
!	!	!	!	!	!	!	!	!	!	!	!	!	!	!	!	!	!	!LO:TX:a:t=P:problem=# above	!	!	!	!	!	!	!	!	!	!	!	!	!	!	!	!	!
.	.	.	.	.	.	.	.	.	.	.	.	.	.	.	.	.	.	2f#X\	-vu-	-mi-	-po-	-pu-	-mo-	-fe-	-ti-	-cli-	.	.	.	.	.	.	.	.	.
4D/	.	.	.	.	.	.	.	.	4d\	.	.	.	.	.	.	.	.	.	.	.	.	.	.	.	.	.	4a\	-lo	-nis	-re	-tans	-num	-rens	-a	-to
=13	=13	=13	=13	=13	=13	=13	=13	=13	=13	=13	=13	=13	=13	=13	=13	=13	=13	=13	=13	=13	=13	=13	=13	=13	=13	=13	=13	=13	=13	=13	=13	=13	=13	=13	=13
!	!	!	!	!	!	!	!	!	!	!	!	!	!	!	!	!	!	!	!	!	!	!	!	!	!	!	!LO:N:acc=#	!	!	!	!	!	!	!	!
1G,	-lo	-nis	-re	-tans	-num	-rens	-a	-to	1d,	-lo	-nis	-re	-tans	-num	-rens	-a	-to	1g	-lo	-nis	-re	-tans	-num	-rens	-a	-to	1bn,	.	.	.	.	.	.	.	.
2G\	red-	Rum-	mi-	o-	ſae-	da-	poe-	per	2d\	red-	Rum-	Mi-	O-	ſae-	Da-	Poe-	Per	2g\	red-	Rum-	mi-	O-	ſae-	Da-	Poe-	Per	2b\	red-	Rum-	Mi-	O-	ſae-	Da-	Poe-	Per
=14	=14	=14	=14	=14	=14	=14	=14	=14	=14	=14	=14	=14	=14	=14	=14	=14	=14	=14	=14	=14	=14	=14	=14	=14	=14	=14	=14	=14	=14	=14	=14	=14	=14	=14	=14
2G\	-dis	-pen-	-gra-	-vans	-cu-	-pes	-nas	om-	2.d\	-dis	-pen-	-gra-	-vans	-cu-	-pes	-nas	om-	2.d\	-dis	-pen-	-gra-	-vans	-cu-	-pes	-nas	om-	(2.b\	-dis	-pen-	-gra-	-vans	-cu-	-pes	-nas	om-
(4F\	pe-	-do	.	te-	-um-	Su-	re-	-ne	.	.	.	.	.	.	.	.	.	.	.	.	.	.	.	.	.	.	.	.	.	.	.	.	.	.	.
4E\)	.	.	.	.	.	.	.	.	4A\	pe-	-do	.	te-	-um-	su-	re-	-ne	4e\	pe-	-do	-vit	te-	-um-	su-	re-	-ne	4cc\)	.	-do	.	te-	-um-	su-	re-	-ne
*	*	*	*	*	*	*	*	*	*	*	*	*	*	*	*	*	*	*	*	*	*	*	*	*	*	*	*	*	*ij	*	*	*	*	*	*
2D/	-ren-	ne-	-vit	-net	-q(ue)	-per-	-mit-	ſem-	2A\	-ren-	ne-	-vit	-net	-q(ue)	-per-	-mit-	ſem-	2f\	-ren-	ne-	in-	-net	-q(ue)	-per-	-mit-	ſem-	2dd\	red-	rum-	-vit	-net	-q(ue)	-per-	-mit-	ſem-
=15	=15	=15	=15	=15	=15	=15	=15	=15	=15	=15	=15	=15	=15	=15	=15	=15	=15	=15	=15	=15	=15	=15	=15	=15	=15	=15	=15	=15	=15	=15	=15	=15	=15	=15	=15
*	*	*	*	*	*	*	*	*	*	*	*	*	*	*	*	*	*	*	*	*	*	*	*	*	*	*	*	*	*	*ij	*ij	*	*	*	*
2AA/	-ne	-xum	in-	cae-	a-	-nas	-tas	-per	2F/	-ne	-xum	in-	cae-	a-	-nas	-tas	-per	2a\	-ne	-xum	-ter	cae-	a-	-nat	-tas	-per	2cc\	-dis	-pen-	mi-	o-	a-	-nas	-tas	-per
*	*	*	*	*	*	*	*	*	*	*	*	*	*	*	*	*	*	*	*	*	*	*	*	*	*	*	*	*	*	*	*	*	*ij	*ij	*ij
2.C/	prae-	vin-	-ter	-les-	-ver-	ob-	dee-	sae-	2.F/	prae-	Vin-	-ter	-les-	-ver-	ob-	de-	ſae-	2.g\	prae-	Vin-	si-	-les-	-ver-	ob-	de-	ſae-	2.cc\	pe-	-do	-gra-	-vans	-ver-	su-	re-	sem-
*	*	*	*	*	*	*	*	*	*	*	*	*	*	*	*	*	*	*	*	*	*	*	*	*	*	*	*	*	*Xij	*	*	*	*	*	*
4C/	-mi-	-cu-	sy-	-ti-	-ni	-ti-	-bi-	-cu-	4E/	-mi-	-cu-	si-	-ti-	-ni	-ti-	-bi-	-cu-	4f\	-mi-	-cu-	-de-	-ti-	-ni	-ti-	-bi-	-cu-	4cc\	-ren-	ne-	-vit	te-	-ni	-per-	-mit-	.
*	*	*	*	*	*	*	*	*	*	*	*	*	*	*	*	*	*	*	*	*	*	*	*	*	*	*	*	*	*	*Xij	*	*	*	*	*
=16	=16	=16	=16	=16	=16	=16	=16	=16	=16	=16	=16	=16	=16	=16	=16	=16	=16	=16	=16	=16	=16	=16	=16	=16	=16	=16	=16	=16	=16	=16	=16	=16	=16	=16	=16
1F	-um	-li	-de-	-a	prin-	-net	-tas	-lum	1F	-um	-li	-de-	-a	prin-	-net	-tas	-lum	1f,	-um	-li	-ra	-a	prin-	-net	-tas	-lum	(1cc,	-ne	-xum	in-	-net	prin-	-nas	-tas	-per
*	*ij	*ij	*	*ij	*	*ij	*ij	*ij	*	*ij	*ij	*	*ij	*	*ij	*ij	*ij	*	*	*ij	*ij	*ij	*	*ij	*ij	*ij	*	*	*	*	*Xij	*	*Xij	*Xij	*Xij
2F\	pe-	ne-	-ra	o-	-ci-	su-	re-	sem-	2c\	prae-	Vin-	-ra	cae-	-ci-	su-	re-	ſem-	2a\	.	Vin-	si-	cae-	-ci-	su-	re-	ſem-	2cc\)	.	Vin-	-ter	cae-	-ci-	ob-	de-	ſae-
=17	=17	=17	=17	=17	=17	=17	=17	=17	=17	=17	=17	=17	=17	=17	=17	=17	=17	=17	=17	=17	=17	=17	=17	=17	=17	=17	=17	=17	=17	=17	=17	=17	=17	=17	=17
*	*	*	*ij	*	*	*	*	*	*	*	*	*ij	*	*	*	*	*	*	*ij	*	*	*	*	*	*	*	*	*	*	*	*	*	*	*	*
2A\	-ren-	.	in-	-vans	-pem	-per-	-mit-	.	2.A/	-mi-	-cu-	si-	-les-	-pem	-per-	-mit-	-per	2.e\	prae-	-cu-	-de-	-les-	-pem	-per-	-mit-	-per	2.cc\	prae-	-cu-	si-	-les-	-pem	-ti-	-bi-	-cu-
*	*	*	*	*	*ij	*	*	*	*	*	*	*	*	*	*	*	*	*	*	*	*	*	*	*	*	*	*	*	*	*	*	*	*	*	*
(4G\	.	.	.	-te	a-	-nas	-tas	.	.	.	.	.	.	.	.	.	.	.	.	.	.	.	.	.	.	.	.	.	.	.	.	.	.	.	.
*	*	*	*	*	*	*	*	*	*	*	*	*	*	*ij	*	*	*	*	*	*	*	*	*ij	*	*	*	*	*	*	*	*	*ij	*	*	*
4F\)	.	.	.	.	.	.	.	.	4A/	.	.	-de-	-ti-	a-	-nas	-tas	.	4e\	-mi-	.	.	-ti-	a-	-nat	-tas	.	4b\	-mi-	.	-de-	-ti-	a-	-net	-tas	-lum
2E\	-re	-xum	-ter	-net	-ver-	.	.	-per	2G/	-um	-li	-ra	-a	-ver-	.	.	.	2g\	-um	-li	-ra	-a	-ver-	.	.	.	2ee\	-um	-li	-ra	-a	-ver-	.	.	.
=18	=18	=18	=18	=18	=18	=18	=18	=18	=18	=18	=18	=18	=18	=18	=18	=18	=18	=18	=18	=18	=18	=18	=18	=18	=18	=18	=18	=18	=18	=18	=18	=18	=18	=18	=18
*	*	*	*	*	*	*	*	*	*	*	*	*	*	*	*	*	*	*	*	*	*	*	*	*	*	*	*	*ij	*ij	*ij	*ij	*	*ij	*ij	*ij
2F\	prae-	vin-	sy-	cae-	-ni	ob-	de-	sae-	2A/	prae-	vin-	si-	cae-	-ni	ob-	de-	sae-	2f\	prae-	vin-	si-	cae-	-ni	ob-	de-	ſae-	2dd\	prae-	Vin-	si-	cae-	-ni	ob-	de-	sae-
2.A\	.	-cu-	-de-	-les-	prin-	-ti-	-bi-	-cu-	2.A/	.	-cu-	-de-	-les-	prin-	-ti-	-bi-	-cu-	2.e\	.	-cu-	-de-	-les-	prin-	-ti-	-bi-	-cu-	2.dd\	.	-cu-	-de-	-les-	prin-	-ti-	-bi-	-cu-
4A\	-mi-	.	.	-ti-	-ci-	.	.	.	4A/	-mi-	.	.	-ti-	-ci-	.	.	.	4e\	-mi-	.	.	-ti-	-ci-	.	.	.	4cc#X\	-mi-	.	.	-ti-	-ci-	.	.	.
=19-	=19	=19	=19	=19	=19	=19	=19	=19	=19	=19	=19	=19	=19	=19	=19	=19	=19	=19	=19	=19	=19	=19	=19	=19	=19	=19	=19	=19	=19	=19	=19	=19	=19	=19	=19
1.D;<	-um	-li	-ra	-a	-pem	-net	-tas	-lum	1.A;<	-um	-li	-ra	-a	-pem	-net	-tas	-lum	1.d;<	-um	-li	-ra	-a	-pem	-net	-tas	-lum	1.dd;;	-um	-li	-ra	-a	-pem	-net	-tas	-lum
*	*Xij	*	*Xij	*Xij	*Xij	*Xij	*Xij	*	*	*Xij	*Xij	*Xij	*Xij	*Xij	*Xij	*Xij	*Xij	*	*Xij	*Xij	*Xij	*Xij	*Xij	*Xij	*Xij	*Xij	*	*Xij	*Xij	*Xij	*Xij	*Xij	*Xij	*Xij	*Xij
==	==	==	==	==	==	==	==	==	==	==	==	==	==	==	==	==	==	==	==	==	==	==	==	==	==	==	==	==	==	==	==	==	==	==	==
*-	*-	*-	*-	*-	*-	*-	*-	*-	*-	*-	*-	*-	*-	*-	*-	*-	*-	*-	*-	*-	*-	*-	*-	*-	*-	*-	*-	*-	*-	*-	*-	*-	*-	*-	*-
!!!system-decoration: [(s1,s2,s3,s4)]
!!!RDF**kern: < = below
!!!ENC: Andrzej Gręziak
!!!END: 2024-04-13
!!!EED: Marta Chmielewska
!!!EEV: 2024-05-28
